icons/core/hourglass.svg

<svg width="32" height="32" viewBox="0 0 32 32" fill="none" xmlns="http://www.w3.org/2000/svg">
<path fill-rule="evenodd" clip-rule="evenodd" d="M24 4L26 4V2H6V4L8 4V11.0858C8 11.6162 8.21071 12.1249 8.58579 12.5L12.0858 16L8.58579 19.5C8.21071 19.8751 8 20.3838 8 20.9142V28H6V30H26V28L24 28V20.9142C24 20.3838 23.7893 19.8751 23.4142 19.5L19.9142 16L23.4142 12.5C23.7893 12.1249 24 11.6162 24 11.0858V4ZM22 4H10V11.0858L13.5 14.5858C14.2811 15.3668 14.2811 16.6332 13.5 17.4142L10 20.9142L10 28L22 28V20.9142L18.5 17.4142C17.719 16.6332 17.719 15.3668 18.5 14.5858L22 11.0858V4Z" fill="black"/>
</svg>

<svg viewBox="0 0 32 32" xmlns="http://www.w3.org/2000/svg"><path fill-rule="evenodd" d="M24 4h2V2H6v2h2v7.086a2 2 0 00.586 1.414l3.5 3.5-3.5 3.5A2 2 0 008 20.914V28H6v2h20v-2h-2v-7.086a2 2 0 00-.586-1.414l-3.5-3.5 3.5-3.5A2 2 0 0024 11.086V4zm-2 0H10v7.086l3.5 3.5a2 2 0 010 2.828l-3.5 3.5V28h12v-7.086l-3.5-3.5a2 2 0 010-2.828l3.5-3.5V4z"/></svg>
